packages/ui-icons/svg/Solid/studio.svg

<svg viewBox="0 0 1920 1920" version="1.1" xmlns="http://www.w3.org/2000/svg">
    <path d="M1740.1347,0 C1772.59552,0 1798.91021,26.3146923 1798.91021,58.7755102 L1798.91021,1184.36294 C1798.91021,1216.82376 1772.59552,1243.13845 1740.1347,1243.13845 L1494.85675,1243.13845 L1494.85675,1442.95552 C1494.85675,1457.15713 1506.36943,1468.66981 1520.57103,1468.66981 L1582.03377,1468.66981 C1605.4115,1402.98637 1668.1355,1355.96296 1741.84241,1355.96296 C1835.4996,1355.96296 1911.42375,1431.88712 1911.42375,1525.54431 C1911.42375,1619.2015 1835.4996,1695.12566 1741.84241,1695.12566 C1667.52714,1695.12566 1604.37683,1647.32281 1581.46297,1580.78862 L1522.36272,1580.8373 C1445.2319,1580.8373 1382.73451,1518.33991 1382.73451,1441.24547 L1382.76817,1243.13845 L1259.36291,1243.13845 L1259.36291,1590.3165 C1325.48067,1613.45917 1372.90132,1676.40107 1372.90132,1750.41865 C1372.90132,1844.07584 1296.97717,1920 1203.31997,1920 C1109.66278,1920 1033.73863,1844.07584 1033.73863,1750.41865 C1033.73863,1676.40107 1081.15928,1613.45917 1147.27704,1590.3165 L1147.27704,1243.13845 L782.213784,1243.13845 L782.213784,1590.3165 C848.331544,1613.45917 895.752197,1676.40107 895.752197,1750.41865 C895.752197,1844.07584 819.828042,1920 726.17085,1920 C632.513658,1920 556.589502,1844.07584 556.589502,1750.41865 C556.589502,1676.40107 604.010155,1613.45917 670.127916,1590.3165 L670.127916,1243.13845 L546.655579,1243.13845 L546.689247,1441.24547 C546.689247,1518.33991 484.191853,1580.8373 407.09741,1580.8373 L347.960786,1580.78862 C325.046924,1647.32281 261.896612,1695.12566 187.581348,1695.12566 C93.9241555,1695.12566 18,1619.2015 18,1525.54431 C18,1431.88712 93.9241555,1355.96296 187.581348,1355.96296 C261.288255,1355.96296 324.012258,1402.98637 347.389983,1468.66981 L408.85272,1468.66981 C423.054328,1468.66981 434.567006,1457.15713 434.567006,1442.95552 L434.567006,1243.13845 L188.114532,1243.13845 C155.653714,1243.13845 129.339021,1216.82376 129.339021,1184.36294 L129.339021,58.7755102 C129.339021,26.3146923 155.653714,0 188.114532,0 L1740.1347,0 Z M1204.67111,1694.78976 C1173.94812,1694.78976 1149.04222,1719.69566 1149.04222,1750.41865 C1149.04222,1781.14164 1173.94812,1806.04755 1204.67111,1806.04755 C1235.3941,1806.04755 1260.30001,1781.14164 1260.30001,1750.41865 C1260.30001,1719.69566 1235.3941,1694.78976 1204.67111,1694.78976 Z M727.52199,1694.78976 C696.799,1694.78976 671.893096,1719.69566 671.893096,1750.41865 C671.893096,1781.14164 696.799,1806.04755 727.52199,1806.04755 C758.244979,1806.04755 783.150884,1781.14164 783.150884,1750.41865 C783.150884,1719.69566 758.244979,1694.78976 727.52199,1694.78976 Z M1743.19355,1469.91542 C1712.47056,1469.91542 1687.56465,1494.82132 1687.56465,1525.54431 C1687.56465,1556.2673 1712.47056,1581.17321 1743.19355,1581.17321 C1773.91654,1581.17321 1798.82244,1556.2673 1798.82244,1525.54431 C1798.82244,1494.82132 1773.91654,1469.91542 1743.19355,1469.91542 Z M186.230208,1469.91542 C155.507218,1469.91542 130.601314,1494.82132 130.601314,1525.54431 C130.601314,1556.2673 155.507218,1581.17321 186.230208,1581.17321 C216.953198,1581.17321 241.859102,1556.2673 241.859102,1525.54431 C241.859102,1494.82132 216.953198,1469.91542 186.230208,1469.91542 Z M1692.20211,1040 L236.047122,1040 L236.047122,1107.09854 C236.047122,1123.32895 249.204468,1136.48629 265.434877,1136.48629 L1662.81435,1136.48629 C1679.04476,1136.48629 1692.20211,1123.32895 1692.20211,1107.09854 L1692.20211,1040 Z M1662.81435,106.666667 L265.434877,106.666667 C249.204468,106.666667 236.047122,119.824013 236.047122,136.054422 L236.047122,933.333333 L1692.20211,933.333333 L1692.20211,136.054422 C1692.20211,119.824013 1679.04476,106.666667 1662.81435,106.666667 Z M906.046855,348.664896 L1126.08185,480.46113 C1138.59009,489.628452 1146,504.337618 1146,520 C1146,535.662382 1138.59009,550.371548 1126.08185,559.53887 L906.046855,691.335104 C891.19456,700.041024 872.897012,700.046423 858.039735,691.349269 C843.182458,682.652115 834.019897,666.572114 834,649.160309 L834,390.839691 C834.019897,373.427886 843.182458,357.347885 858.039735,348.650731 C872.897012,339.953577 891.19456,339.958976 906.046855,348.664896 Z" stroke="none" stroke-width="1" fill-rule="evenodd"/>
</svg>

<svg viewBox="0 0 1920 1920" xmlns="http://www.w3.org/2000/svg">
    <path d="M1740.135 0c32.46 0 58.775 26.315 58.775 58.776v1125.587c0 32.46-26.314 58.775-58.775 58.775h-245.278v199.818c0 14.201 11.512 25.714 25.714 25.714h61.463c23.377-65.684 86.101-112.707 159.808-112.707 93.658 0 169.582 75.924 169.582 169.581 0 93.657-75.924 169.582-169.582 169.582-74.315 0-137.465-47.803-160.379-114.337l-59.1.048c-77.131 0-139.628-62.497-139.628-139.592l.033-198.107h-123.405v347.178c66.118 23.143 113.538 86.085 113.538 160.103 0 93.657-75.924 169.581-169.581 169.581-93.657 0-169.581-75.924-169.581-169.581 0-74.018 47.42-136.96 113.538-160.103v-347.178H782.214v347.178c66.118 23.143 113.538 86.085 113.538 160.103 0 93.657-75.924 169.581-169.581 169.581-93.657 0-169.581-75.924-169.581-169.581 0-74.018 47.42-136.96 113.538-160.103v-347.178H546.656l.033 198.107c0 77.095-62.497 139.592-139.592 139.592l-59.136-.048c-22.914 66.534-86.064 114.337-160.38 114.337C93.924 1695.126 18 1619.2 18 1525.544s75.924-169.581 169.581-169.581c73.707 0 136.431 47.023 159.809 112.707h61.463c14.201 0 25.714-11.513 25.714-25.714v-199.818H188.115c-32.461 0-58.776-26.314-58.776-58.775V58.776C129.339 26.315 155.654 0 188.115 0h1552.02ZM1204.67 1694.79c-30.723 0-55.629 24.906-55.629 55.629s24.906 55.629 55.63 55.629c30.722 0 55.628-24.906 55.628-55.63 0-30.722-24.906-55.628-55.629-55.628Zm-477.149 0c-30.723 0-55.629 24.906-55.629 55.629s24.906 55.629 55.629 55.629 55.629-24.906 55.629-55.63c0-30.722-24.906-55.628-55.629-55.628Zm1015.672-224.875c-30.723 0-55.63 24.906-55.63 55.63 0 30.722 24.907 55.628 55.63 55.628 30.723 0 55.628-24.906 55.628-55.629s-24.905-55.629-55.628-55.629Zm-1556.964 0c-30.723 0-55.629 24.906-55.629 55.63 0 30.722 24.906 55.628 55.63 55.628 30.722 0 55.628-24.906 55.628-55.629s-24.906-55.629-55.629-55.629ZM1692.202 1040H236.047v67.099c0 16.23 13.157 29.387 29.388 29.387h1397.38c16.23 0 29.387-13.157 29.387-29.387V1040Zm-29.388-933.333H265.434c-16.23 0-29.387 13.157-29.387 29.387v797.28h1456.155v-797.28c0-16.23-13.157-29.387-29.388-29.387ZM906.047 348.665l220.035 131.796C1138.59 489.628 1146 504.338 1146 520c0 15.662-7.41 30.372-19.918 39.539L906.047 691.335a47.406 47.406 0 0 1-48.007.014c-14.858-8.697-24.02-24.777-24.04-42.189V390.84c.02-17.412 9.182-33.492 24.04-42.19a47.406 47.406 0 0 1 48.007.015Z" fill-rule="evenodd"/>
</svg>
